assets/fc/fc-alphabetical-sorting-az.svg

<svg xmlns="http://www.w3.org/2000/svg" width="100%" height="100%" viewBox="0 0 48 48"><path fill="#546E7A" d="M38 33V5h-4v28h-6l8 10 8-10z"/><g fill="#2196F3"><path d="M16.8 17.2h-5.3l-1.1 3H6.9L12.6 5h2.9l5.7 15.2H18l-1.2-3zm-4.6-2.7H16l-1.9-5.7-1.9 5.7zM12.4 40.5H20V43H8.4v-1.9L16 30.3H8.4v-2.5h11.4v1.7l-7.4 11z"/></g></svg>

<svg xmlns="http://www.w3.org/2000/svg" width="100%" height="100%" viewBox="0 0 48 48"><path fill="#546E7A" d="M38 33L38 5 34 5 34 33 28 33 36 43 44 33z"/><g fill="#2196F3"><path d="M16.8 17.2h-5.3l-1.1 3H6.9L12.6 5h2.9l5.7 15.2h-3.2L16.8 17.2zM12.2 14.5H16l-1.9-5.7L12.2 14.5zM12.4 40.5H20V43H8.4v-1.9L16 30.3H8.4v-2.5h11.4v1.7L12.4 40.5z"/></g></svg>
